**kern	**kern	**kern	**kern
*staff4	*staff3	*staff2	*staff1
*clefF4	*clefF4	*clefG2	*clefG2
*k[f#]	*k[f#]	*k[f#]	*k[f#]
*M2/4	*M2/4	*M2/4	*M2/4
*G:	*G:	*G:	*G:
=-	=-	=-	=-
8.r	16GLL	16dLL 16g 16b	16gg]
.	16G	16d 16g 16b	8r
.	16GJJ	16dJJ 16g 16b	.
=128	=128	=128	=128
2r	[4G	4d 4g 4b-	32ggLLL
.	.	.	32dd
.	.	.	32gg
.	.	.	32bb-JJ
.	.	.	32dddLL
.	.	.	32bb-
.	.	.	32ddd
.	.	.	32bb-JJJ
.	16r	16r	8gg
.	16GLL	16dLL 16g 16b-	.
.	16G	16d 16g 16b-	8r
.	16GJJ	16dJJ 16g 16b-	.
=129	=129	=129	=129
4EE-	2G	4e- 4g 4b-	2r
8GGL	.	4r	.
8BB-J	.	.	.
=130	=130	=130	=130
[2EE- [2E-	[2G [2B-	2r	4e-
.	.	.	8gL
.	.	.	8b-J
=131	=131	=131	=131
2EE-] 2E-]	2G] 2B-]	2e- 2g	8ee-L
.	.	.	8ggJ
.	.	.	(16.bb-LL
.	.	.	32aaJk
.	.	.	32ggLL
.	.	.	32ff
.	.	.	32ee-
.	.	.	32ddJJJ
=132	=132	=132	=132
2r	2e-	8r	8cc#L)
.	.	(8b-	(8cc#'J
.	.	8aL	8cc#'L
.	.	8gJ	8cc#'J)
=133	=133	=133	=133
(8DL	8d	4f#)	8dd
8CJ	4d	.	16r
.	.	.	(16dd'
8BBL	.	(8gL	16ee-'LL
.	.	.	16ee'
8AAJ)	8d	8ccJ)	16ff'
.	.	.	16ff#'JJ)
=	=	=	=
*-	*-	*-	*-
